X: 115
%
U:~=!turn!
T: Colonel Macbean
T: Colonel MacBain
C:
O:Scotland
B:Keith Norman MacDonald : "The Skye collection of the best reels & strathspeys extant" : 1887
Z:Ralph Palmer
R:Reel
M:C|
L:1/8
K:G aeolian
c | (B/c/d) (Gd) BGdG | (A/B/c) (Fc) AFcA | (B/c/d) (Gd) BGdG | (^F/G/A) (DF) {/F}G2 G :| A | ~B2- Bf B/B/B (Tfd) | {/d}cdcB ABcA |
{/^F}Gg-ga bag^f | (g/a/b) a^f ~g2 (ga) | (g/a/b) (fd) ~Bd fd | {/d}(cd)cB ABcA | BdTg^f gd{/B}ce | {^c}dB{/B}=cA {/^F}G2 G |]


